Adwaita/symbolic/status/battery-action-symbolic.svg

<?xml version="1.0" encoding="UTF-8"?>
<svg height="16px" viewBox="0 0 16 16" width="16px" xmlns="http://www.w3.org/2000/svg">
    <g fill="#ed333b">
        <path d="m 7 0 c -1 0 -1 1 -1 1 v 1 h -1 s -0.707031 -0.015625 -1.445312 0.355469 c -0.742188 0.371093 -1.554688 1.3125 -1.554688 2.644531 v 8 s -0.015625 0.707031 0.355469 1.445312 c 0.371093 0.742188 1.3125 1.554688 2.644531 1.554688 h 6 s 0.710938 0.015625 1.449219 -0.355469 c 0.738281 -0.371093 1.550781 -1.3125 1.550781 -2.644531 v -8 c 0 -1.332031 -0.8125 -2.273438 -1.550781 -2.644531 c -0.742188 -0.367188 -1.449219 -0.355469 -1.449219 -0.355469 h -1 v -1 c 0 -1 -1 -1 -1 -1 z m 4 4 c 0.554688 0 1 0.445312 1 1 v 8 c 0 0.554688 -0.445312 1 -1 1 h -6 c -0.554688 0 -1 -0.445312 -1 -1 v -8 c 0 -0.554688 0.445312 -1 1 -1 z m 0 0"/>
        <path d="m 5.898438 5.886719 c -0.269532 0 -0.523438 0.105469 -0.710938 0.292969 c -0.386719 0.390624 -0.386719 1.023437 0 1.410156 l 1.40625 1.40625 l -1.414062 1.414062 c -0.386719 0.390625 -0.386719 1.019532 0 1.410156 c 0.390624 0.386719 1.019531 0.386719 1.410156 0 l 1.414062 -1.414062 l 1.410156 1.414062 c 0.191407 0.1875 0.445313 0.292969 0.710938 0.292969 s 0.519531 -0.105469 0.710938 -0.292969 c 0.386718 -0.390624 0.386718 -1.019531 0 -1.410156 l -1.414063 -1.414062 l 1.40625 -1.40625 c 0.386719 -0.386719 0.386719 -1.019532 0 -1.410156 c -0.191406 -0.1875 -0.445313 -0.292969 -0.710937 -0.292969 c -0.265626 0 -0.519532 0.105469 -0.707032 0.292969 l -1.402344 1.402343 l -1.40625 -1.402343 c -0.183593 -0.1875 -0.441406 -0.292969 -0.703124 -0.292969 z m 0 0"/>
    </g>
</svg>

<?xml version="1.0" encoding="UTF-8"?>
<svg xmlns="http://www.w3.org/2000/svg" xmlns:xlink="http://www.w3.org/1999/xlink" width="16px" height="16px" viewBox="0 0 16 16" version="1.1">
<g id="surface1761516">
<path style=" stroke:none;fill-rule:nonzero;fill:rgb(92.941177%,20%,23.137255%);fill-opacity:1;" d="M 7 0 C 6 0 6 1 6 1 L 6 2 L 5 2 C 5 2 4.292969 1.984375 3.554688 2.355469 C 2.8125 2.726562 2 3.667969 2 5 L 2 13 C 2 13 1.984375 13.707031 2.355469 14.445312 C 2.726562 15.1875 3.667969 16 5 16 L 11 16 C 11 16 11.710938 16.015625 12.449219 15.644531 C 13.1875 15.273438 14 14.332031 14 13 L 14 5 C 14 3.667969 13.1875 2.726562 12.449219 2.355469 C 11.707031 1.988281 11 2 11 2 L 10 2 L 10 1 C 10 0 9 0 9 0 Z M 11 4 C 11.554688 4 12 4.445312 12 5 L 12 13 C 12 13.554688 11.554688 14 11 14 L 5 14 C 4.445312 14 4 13.554688 4 13 L 4 5 C 4 4.445312 4.445312 4 5 4 Z M 11 4 "/>
<path style=" stroke:none;fill-rule:nonzero;fill:rgb(92.941177%,20%,23.137255%);fill-opacity:1;" d="M 5.898438 5.886719 C 5.628906 5.886719 5.375 5.992188 5.1875 6.179688 C 4.800781 6.570312 4.800781 7.203125 5.1875 7.589844 L 6.59375 8.996094 L 5.179688 10.410156 C 4.792969 10.800781 4.792969 11.429688 5.179688 11.820312 C 5.570312 12.207031 6.199219 12.207031 6.589844 11.820312 L 8.003906 10.40625 L 9.414062 11.820312 C 9.605469 12.007812 9.859375 12.113281 10.125 12.113281 C 10.390625 12.113281 10.644531 12.007812 10.835938 11.820312 C 11.222656 11.429688 11.222656 10.800781 10.835938 10.410156 L 9.421875 8.996094 L 10.828125 7.589844 C 11.214844 7.203125 11.214844 6.570312 10.828125 6.179688 C 10.636719 5.992188 10.382812 5.886719 10.117188 5.886719 C 9.851562 5.886719 9.597656 5.992188 9.410156 6.179688 L 8.007812 7.582031 L 6.601562 6.179688 C 6.417969 5.992188 6.160156 5.886719 5.898438 5.886719 Z M 5.898438 5.886719 "/>
</g>
</svg>
